X:1
T:Maple Leaf Rag
T:A Rag Two-Step - Duet Arrangement
T:Scott Joplin
T:Arranged by Piotr Barcz for piano duet
%%score { 1 | 2 }
L:1/8
Q:1/4=104
M:2/4
K:Ab
V:1 treble nm="Piano" snm="Pno."
V:2 bass 
V:1
 z4 | z/ A/[Ee]/A/ c/[Ee]G/ | [Ee]/G/B/[Ee]/- [Ee]2 | z/ A/[Ee]/A/ c/[Ee]G/ | %4
 [Ee]/G/B/[Ee]/- [Ee] z/ [Ee]/ | z/ A/_c/[=E=e]/ z/ .[_E_e][Ee]/ | z/ A/_c/[=E=e]/ z/ .[_E_e]3/2 | %7
 z/ A,,/_C,/A,/ z/ A,/_C/A/ | z/ A/_c/a/ z/ a/_c'/a'/ | [aa'][aa'] [aa'][aa']/[aa']/- | %10
 [aa']/e'/f'/c'/ e'/[af'][=ea]/- | [ea]/b/[=e_c']/a/ b/[_e=c']a/ | [ec']/a/[eb] .[ea]>[Aa]- | %13
 [Aa][Aa] [Aa][Aa]/[Aa]/- | [Aa]/e/[Af]/c/ e/[Af][=EA]/- | [EA]/B/[=E_c]/A/ B/[_E=c]A/ | %16
 [Ec]/A/[EB] .[EA]2 | z/ [Aa]/[Eee']/[Aa]/ [cc']/[Eee'][Gg]/ | [Eee']/[Gg]/[Bb]/[Eee']/- [Eee']2 | %19
 z/ [Aa]/[Eee']/[Aa]/ [cc']/[Eee'][Gg]/ | [Eee']/[Gg]/[Bb]/[Eee']/- [Eee'] z/ [Eee']/ | %21
 z/ [Aa]/[_c_c']/[=E=e=e']/ z/ .[_E_e_e'][Eee']/ | z/ [Aa]/[_c_c']/[=E=e=e']/ z/ .[_E_e_e']3/2 | %23
 z/ [A,,A,]/[_C,_C]/[A,A]/ z/ [A,A]/[C_c]/[Aa]/ | %24
 z/ [Aa]/[_c_c']/[aa']/ z/ [aa']/[c'_c''_c''']/[a'a'']/ | %25
 [aa'a''][aa'a''] [aa'a''][aa'a'']/[aa'a'']/- | %26
 [aa'a'']/[e'e'']/[f'f'']/[c'c'']/ [e'e'']/[af'a'f''][=ea=e'a']/- | %27
 [eae'a']/[bb']/[=e_c'=e'_c'']/[aa']/ [bb']/[_e=c'_e'=c''][aa']/ | %28
 [ec'e'c'']/[aa']/[ebe'b'] .[eae'a']>[Aaa']- | [Aaa'][Aaa'] [Aaa'][Aaa']/[Aaa']/- | %30
 [Aaa']/[ee']/[Afaf']/[cc']/ [ee']/[Afaf'][=EA=ea]/- | %31
 [EAea]/[Bb]/[=E_c=e_c']/[Aa]/ [Bb]/[_E=c_e=c'][Aa]/ | [Ecec']/[Aa]/[EBeb] .[EAea]2 | %33
 z/ g/[ee']/g/ b/[=d=d']g/ | [dd']/g/b/[cc']/- [cc']/e/[Bb]/e/ | z/ c/[Aa]/c/ e/[Ff]c/ | %36
 [Aa]/c/e/[Ff]/- [Ff]/c/[Ff] | z/ e/[Gg]/B/ d/[Ff]e/ | [Gg]/B/d/[Ff]/- [Ff]/d/[Ff] | %39
 z/ c/[Aa]/c/ e/[Ff]c/ | [Aa]/c/e/[Ff]/- [Ff]/c/[Ff] | z/ g/[ee']/g/ b/[=d=d']g/ | %42
 [dd']/g/b/[cc']/- [cc']/e/[Bb]/e/ | z/ c/[Aa]/c/ e/[Ff]c/ | [Aa][Aa] [Gg][_G_g] | %45
 z/ F/=A/c/ f/c/A/F/ | z/ F/B/d/ [Ff][FBd] | .[=DFAc]>[DFAc] z/ [_DB]E/ | [CA][Ee] [Ee][Ee] | %49
 z/ [gg']/[ee'e'']/[gg']/ [bb']/[=d=d'=d''][gg']/ | %50
 [dd'd'']/[gg']/[bb']/[cc'c'']/- [cc'c'']/[ee']/[Bbb']/[ee']/ | %51
 z/ [cc']/[Aaa']/[cc']/ [ee']/[Fff'][cc']/ | [Aaa']/[cc']/[ee']/[Fff']/- [Fff']/[cc']/[Fff'] | %53
 z/ [ee']/[Ggg']/[Bb]/ [dd']/[Fff'][ee']/ | [Ggg']/[Bb]/[dd']/[Fff']/- [Fff']/[dd']/[Fff'] | %55
 z/ [cc']/[Aaa']/[cc']/ [ee']/[Fff'][cc']/ | [Aaa']/[cc']/[ee']/[Fff']/- [Fff']/[cc']/[Fff'] | %57
 z/ [gg']/[ee'e'']/[gg']/ [bb']/[=d=d'=d''][gg']/ | %58
 [dd'd'']/[gg']/[bb']/[cc'c'']/- [cc'c'']/[ee']/[Bbb']/[ee']/ | %59
 z/ [cc']/[Aaa']/[cc']/ [ee']/[Fff'][cc']/ | [Aaa'][Aaa'] [Ggg'][_G_g_g'] | %61
 z/ [Ff]/[=A=a]/[cc']/ [ff']/[cc']/[Aa]/[Ff]/ | z/ [Ff]/[Bb]/[dd']/ [Fff'][FBdfbd'] | %63
 .[=DFAc=dfac']>[DFAcdfac'] z/ [_DB_db][Ee]/ | z/ [Aa]/[cc']/[ee']/ .[Aaa']2 | %65
 z/ [Aa]/[Eee']/[Aa]/ [cc']/[Eee'][Gg]/ | [Eee']/[Gg]/[Bb]/[Eee']/- [Eee']2 | %67
 z/ [Aa]/[Eee']/[Aa]/ [cc']/[Eee'][Gg]/ | [Eee']/[Gg]/[Bb]/[Eee']/- [Eee'] z/ [Eee']/ | %69
 z/ [Aa]/[_c_c']/[=E=e=e']/ z/ .[_E_e_e'][Eee']/ | z/ [Aa]/[_c_c']/[=E=e=e']/ z/ .[_E_e_e']3/2 | %71
 z/ [A,,A,]/[_C,_C]/[A,A]/ z/ [A,A]/[C_c]/[Aa]/ | %72
 z/ [Aa]/[_c_c']/[aa']/ z/ [aa']/[c'_c''_c''']/[a'a'']/ | %73
 [aa'a''][aa'a''] [aa'a''][aa'a'']/[aa'a'']/- | %74
 [aa'a'']/[e'e'']/[f'f'']/[c'c'']/ [e'e'']/[af'a'f''][=ea=e'a']/- | %75
 [eae'a']/[bb']/[=e_c'=e'_c'']/[aa']/ [bb']/[_e=c'_e'=c''][aa']/ | %76
 [ec'e'c'']/[aa']/[ebe'b'] [eae'a']>.[Aaa']- | [Aaa'][Aaa'] [Aaa'][Aaa']/.[A-aa'-]/ | %78
 [Aa']/[ee']/[Afaf']/[cc']/ [ee']/[Afaf'][=EA=ea]/- | %79
 [EAea]/[Bb]/[=E_c=e_c']/[Aa]/ [Bb]/[_E=c_e=c'][Aa]/ | [Ecec']/[Aa]/[EBeb] [EAea][Aa] | %81
 [Acea]>[Bcea]- [Bcea]/[ce]/B | [Acea]>[Bcea]- [Bcea]/[ce]/B/[ce]/ | .A/.d/.B/.d/ .f/.A/.d/.f/ | %84
 .B/.d/.f/A/ z/ f/B/f/ | [Acea]>[Bcea]- [Bcea]/[ce]/B | [Acea]>[Bcea]- [Bcea]/[ce]/B/[ce]/ | %87
 .A/.d/.B/.d/ .f/.A/.d/.f/ | .B/.d/.f/A/ z/ f/=A/[ef]/ | [B=dfb]>[cdfb]- [cdfb]/[df]/c | %90
 [B=dfb]>[cdfb]- [cdfb]/[df]/c/[df]/- | [df]/.e/.[Bb]/.e/ ._g/[cc'].e/ | %92
 .[Bb]/.e/._g/[cc']/ z/ e/[Bb] | [d=ed'][ded'] [cec'][Beb] | [Af]/d/e/[B_g]/- [Bg]/B/[Af] | %95
 [Gf]/d/e/[_Gf]/- [Gf]/c/[Ge]/[Fd]/- | [Fd]/[Aa]f/ [Aa]/f/[Aa]/f/ | %97
 [Aceac'e'a']>[Bceabc'e'a']- [Bceabc'e'a']/[cec'e']/[Bb] | %98
 [Aceac'e'a']>[Bceabc'e'a']- [Bceabc'e'a']/[cec'e']/[Bb]/[cec'e']/ | %99
 .[Aa]/.[dd']/.[Bb]/.[dd']/ .[ff']/.[Aa]/.[dd']/.[ff']/ | %100
 .[Bb]/.[dd']/.[ff']/[Aa]/ z/ [ff']/[Bb]/[ff']/ | %101
 [Aceac'e'a']>[Bceabc'e'a']- [Bceabc'e'a']/[cec'e']/[Bb] | %102
 [Aceac'e'a']>[Bceabc'e'a']- [Bceabc'e'a']/[cec'e']/[Bb]/[cec'e']/ | %103
 .[Aa]/.[dd']/.[Bb]/.[dd']/ .[ff']/.[Aa]/.[dd']/.[ff']/ | %104
 .[Bb]/.[dd']/.[ff']/[Aa]/- [Aa]/[ff']/[=A=a]/[efe'f']/ | %105
 .[B=dfb=d'f'b']-[Bdfbd'f'b']/[cdfbc'd'f'b']/- [cdfbc'd'f'b']/[dfd'f']/[cc'] | %106
 [B=dfb=d'f'b']>[cdfbc'd'f'b']- [cdfbc'd'f'b']/[dfd'f']/[cc']/[dfd'f']/ | %107
 z/ .[ee']/.[Bbb']/.[ee']/ .[_g_g']/.[cc'c''].[ee']/ | %108
 .[Bbb']/.[ee']/.[_g_g']/[cc'c'']/ z/ .[ee']/[Bbb'] | %109
 [d=ed'=e'd''][ded'e'd''] [cec'e'c''][Bebe'b'] | %110
 [Afaf']/[dd']/[ee']/[B_gb_g']/- [Bgbg']/[Bb]/[Afaf'] | %111
 [Gfgf']/[dd']/[ee']/[_Gf_gf']/- [Gfgf']/[cc']/[Gege']/[Fdfd']/- | %112
 [Fdfd']/[dd']/[ff']/[aa']/ .[dd'd'']2 | [Aa][Af] [Aa][Af] | [fa][fb]/[fc']/- [fc']/b/a/f/ | %115
 e/f[Ac]/- [Ac]2 | z/ e/[Af]/c/ e/[Af]c/ | [Ge]f/[GB]/- [GB]2 | z/ d/[Gf]/B/ d/[Gf][Ac]/- | %119
 [Ac]/e/[Af]/c/ e/[Af][Ac]/- | [Ac]/e/[Af]/c/ e/[Af]e/ | [Aa][Af] [Aa][Af] | %122
 [fa][fb]/[fc']/- [fc']/b/a/f/ | af e/a[Ac]/- | [Ac]/e/[Af]/c/ e/[Af][FA]/- | %125
 [FA]/B/[FA] [=EA][EB]/[_EA]/- | [EA]/B/[Ec]/A/ B/[Ec][=DA]/- | [DA]/B/[=Dc]/A/ z/ [_DB]E/ | %128
 [CA][Ee] [Ee][Ee] | [Aaa'][Afaf'] [Aaa'][Afaf'] | %130
 [faf'a'][fbf'b']/[fc'f'c'']/- [fc'f'c'']/[bb']/[aa']/[ff']/ | [ee']/[ff'][Acac']/- [Acac']2 | %132
 z/ [ee']/[Afaf']/[cc']/ [ee']/[Afaf'][cc']/ | [Gege'][ff']/[GBgb]/- [GBgb]2 | %134
 z/ [dd']/[Gfgf']/[Bb]/ [dd']/[Gfgf'][Acac']/- | %135
 [Acac']/[ee']/[Afaf']/[cc']/ [ee']/[Afaf'][Acac']/- | %136
 [Acac']/[ee']/[Afaf']/[cc']/ [ee']/[Afaf'][ee']/ | [Aaa'][Afaf'] [Aaa'][Afaf'] | %138
 [faf'a'][fbf'b']/[fc'f'c'']/- [fc'f'c'']/[bb']/[aa']/[ff']/ | [aa'][ff'] [ee']/[aa'][Acac']/- | %140
 [Acac']/[ee']/[Afaf']/[cc']/ [ee']/[Afaf'][FAfa]/- | %141
 [FAfa]/[Bb]/[FAfa] [=EA=ea][EBeb]/[_EA_ea]/- | [EAea]/[Bb]/[Ecec']/[Aa]/ [Bb]/[Ecec'][=DA=da]/- | %143
 [DAda]/[Bb]/[=Dc=dc']/[Aa]/ z/ [_DB_db][Ee]/ | [CAca].[Gdegd'] .[EAceac'e'a']2 |] %145
V:2
 z3 [E,,,E,,E,] | [A,,,A,,A,].[E,A,C] [E,A,C][=A,,,=A,,=A,] | %2
 [B,,,B,,B,].[E,G,D] [E,G,D][E,,,E,,E,] | [A,,,A,,A,].[E,A,C] [E,A,C][=A,,,=A,,=A,] | %4
 [B,,,B,,B,].[E,G,D] [E,G,D][E,,,E,,E,] | [=E,,,=E,,=E,]2 .[_E,,,_E,,_E,][E,,,E,,E,] | %6
 [=E,,,=E,,=E,]2 .[_E,,,_E,,_E,]2 | A,,,2 A,,2 | A,2 .A2 | [=DFA_c][DFAc] [DFAc][DFAc] | %10
 [EAc][EAc] [EAc][EAc] | [=EA_c][EAc] [_EA=c][EAc] | [EAc][EGd] .[A,CEAc]2 | %13
 [=D,F,A,_C][D,F,A,C] [D,F,A,C][D,F,A,C] | [E,A,C][E,A,C] [E,A,C][E,A,C] | %15
 [=E,A,_C][E,A,C] [_E,A,=C][E,A,C] | [E,A,C][E,G,D] [A,,C,E,A,C][E,,,E,,E,] | %17
 [A,,,A,,A,].[E,A,C] [E,A,C][=A,,,=A,,=A,] | [B,,,B,,B,].[E,G,D] [E,G,D][E,,,E,,E,] | %19
 [A,,,A,,A,].[E,A,C] [E,A,C][=A,,,=A,,=A,] | [B,,,B,,B,].[E,G,D] [E,G,D][E,,,E,,E,] | %21
 [=E,,,=E,,=E,]2 .[_E,,,_E,,_E,][E,,,E,,E,] | [=E,,,=E,,=E,]2 .[_E,,,_E,,_E,]2 | A,,,2 [A,,,A,,]2 | %24
 [A,,A,]2 .[A,A]2 | [=DFA_c][DFAc] [DFAc][DFAc] | [EAc][EAc] [EAc][EAc] | %27
 [=EA_c][EAc] [_EA=c][EAc] | [EAc][EGd] .[A,CEAc]2 | [=D,F,A,_C][D,F,A,C] [D,F,A,C][D,F,A,C] | %30
 [E,A,C][E,A,C] [E,A,C][E,A,C] | [=E,A,_C][E,A,C] [_E,A,=C][E,A,C] | %32
 [E,A,C][E,G,D] [A,,C,E,A,C][=A,,,=A,,=A,] | [B,,,B,,B,].[E,G,D] [E,,E,].[E,G,D] | %34
 [B,,B,].[E,G,D] [E,,,E,,E,][G,,,G,,G,] | [A,,,A,,A,].[E,A,C] [E,,E,].[E,A,C] | %36
 [A,,A,].[E,A,C] [A,,,A,,A,][=A,,,=A,,=A,] | [B,,,B,,B,].[E,G,D] [E,,E,].[E,G,D] | %38
 [B,,B,].[E,G,D] [B,,,B,,B,][_C,,_C,_C] | [C,,C,C].[E,A,C] [E,,E,].[E,A,C] | %40
 [A,,A,][E,A,C] [A,,,A,,A,][=A,,,=A,,=A,] | [B,,,B,,B,].[E,G,D] [E,,E,].[E,G,D] | %42
 [B,,B,].[E,G,D] [E,,,E,,E,][G,,,G,,G,] | [A,,,A,,A,].[E,A,C] [E,,E,].[E,A,C] | %44
 [A,,,A,,A,][A,,,A,,A,] [G,,,G,,G,][_G,,,_G,,_G,] | %45
 [F,,,F,,F,][F,,,F,,F,] [=A,,,=A,,=A,][A,,,A,,A,] | [B,,,B,,B,][F,B,D] [F,B,D][F,B,D] | %47
 [B,,F,B,][B,,F,B,] [E,,,E,,E,][G,,,G,,G,] | [A,,,A,,A,][E,A,C] [E,A,C][=A,,,=A,,=A,] | %49
 [B,,,B,,B,].[E,G,D] [E,,E,].[E,G,D] | [B,,B,].[E,G,D] [E,,,E,,E,][G,,,G,,G,] | %51
 [A,,,A,,A,].[E,A,C] [E,,E,].[E,A,C] | [A,,A,].[E,A,C] [A,,,A,,A,][=A,,,=A,,=A,] | %53
 [B,,,B,,B,].[E,G,D] [E,,E,].[E,G,D] | [B,,B,].[E,G,D] [B,,,B,,B,][_C,,_C,_C] | %55
 [C,,C,C].[E,A,C] [E,,E,].[E,A,C] | [A,,A,].[E,A,C] [A,,,A,,A,][=A,,,=A,,=A,] | %57
 [B,,,B,,B,].[E,G,D] [E,,E,].[E,G,D] | [B,,B,].[E,G,D] [E,,,E,,E,][G,,,G,,G,] | %59
 [A,,,A,,A,].[E,A,C] [E,,E,].[E,A,C] | [A,,,A,,A,][A,,,A,,A,] [G,,,G,,G,][_G,,,_G,,_G,] | %61
 [F,,,F,,F,][F,,,F,,F,] [=A,,,=A,,=A,][A,,,A,,A,] | [B,,,B,,B,][F,B,D] [F,B,D][F,B,D] | %63
 [B,,F,B,][B,,F,B,] [E,,E,][G,,,G,,G,] | [A,,,A,,A,][A,CE] [A,CE][E,,,E,,E,] | %65
 [A,,,A,,A,].[E,A,C] [E,A,C][=A,,,=A,,=A,] | [B,,,B,,B,].[E,G,D] [E,G,D][E,,,E,,E,] | %67
 [A,,,A,,A,].[E,A,C] [E,A,C][=A,,,=A,,=A,] | [B,,,B,,B,].[E,G,D] [E,G,D][E,,,E,,E,] | %69
 [=E,,,=E,,=E,]2 .[_E,,,_E,,_E,][E,,,E,,E,] | [=E,,,=E,,=E,]2 .[_E,,,_E,,_E,]2 | A,,,2 [A,,,A,,]2 | %72
 [A,,A,]2 .[A,A]2 | [=DFA_c][DFAc] [DFAc][DFAc] | [EAc][EAc] [EAc][EAc] | %75
 [=EA_c][EAc] [_EA=c][EAc] | [EAc][EGd] .[A,CEAc]2 | [=D,F,A,_C][D,F,A,C] [D,F,A,C][D,F,A,C] | %78
 [E,A,C][E,A,C] [E,A,C][E,A,C] | [=E,A,_C][E,A,C] [_E,A,=C][E,A,C] | %80
 [E,A,C][E,G,D] .[A,,C,E,A,C]2 | [E,,,E,,E,][A,C_G] [_G,,,_G,,_G,][A,CG] | %82
 [F,,,F,,F,][A,C_G] [E,,,E,,E,][C,,,C,,C,] | .[D,,,D,,D,].[A,DF] .[A,,,A,,A,].[A,DF] | %84
 .[F,,,F,,F,].[A,DF] [D,,,D,,D,][=D,,,=D,,=D,] | [E,,,E,,E,][A,C_G] [_G,,,_G,,_G,][A,CG] | %86
 [F,,,F,,F,][A,C_G] [E,,,E,,E,][C,,,C,,C,] | .[D,,,D,,D,].[A,DF] .[A,,,A,,A,].[A,DF] | %88
 .[F,,,F,,F,].[A,DF] [D,,,D,,D,][C,,,C,,C,] | [B,,,,B,,,B,,][B,=DA] [=D,,,=D,,=D,][B,DA] | %90
 [F,,,F,,F,][B,=DA] [B,,,B,,B,][B,DA] | .[E,,,E,,E,].[B,E_G] .[_G,,,_G,,_G,].[B,EG] | %92
 .[E,,,E,,E,].[B,E_G] .[_G,,,_G,,_G,].[B,EG] | %93
 [G,,G,]/[B,,B,][D,D]/ [=E,=E]/[D,D]/[B,,B,]/[G,,G,]/ | [A,,,A,,A,].[A,DF] [B,,,B,,].[A,B,=D] | %95
 [E,B,D][E,B,D] [A,,C,E,A,C][A,,C,E,A,C] | [D,D][A,DF] [A,DF][=D,,,=D,,=D,] | %97
 [E,,,E,,E,][A,C_G] [_G,,,_G,,_G,][A,CG] | [F,,,F,,F,][A,C_G] [E,,,E,,E,][C,,,C,,C,] | %99
 .[D,,,D,,D,].[A,DF] .[A,,,A,,A,].[A,DF] | .[F,,,F,,F,].[A,DF] [D,,,D,,D,][=D,,,=D,,=D,] | %101
 [E,,,E,,E,][A,C_G] [_G,,,_G,,_G,][A,CG] | [F,,,F,,F,][A,C_G] [E,,,E,,E,][C,,,C,,C,] | %103
 .[D,,,D,,D,].[A,DF] .[A,,,A,,A,].[A,DF] | .[F,,,F,,F,].[A,DF] [D,,,D,,D,][C,,,C,,C,] | %105
 [B,,,,B,,,B,,][B,=DA] [=D,,,=D,,=D,][B,DA] | [F,,,F,,F,][B,=DA] [B,,,B,,B,][B,DA] | %107
 .[E,,,E,,E,].[B,E_G] .[_G,,,_G,,_G,].[B,EG] | .[E,,,E,,E,].[B,E_G] .[_G,,,_G,,_G,][B,EG] | %109
 [G,,G,]/[B,,B,][D,D]/ [=E,=E]/[D,D]/[B,,B,]/[G,,G,]/ | [A,,,A,,A,][A,DF] [B,,,,B,,,B,,][A,B,=D] | %111
 [E,B,D][E,B,D] [A,,C,E,A,C][A,,C,E,A,C] | [D,,D,D][A,,,A,,A,] [D,,,D,,D,][C,,C,C] | %113
 [D,,D,D].[A,DF] [A,DF][C,,C,C] | [D,,D,D].[A,DF] [B,,,B,,B,][_C,,_C,_C] | %115
 [C,,C,C].[A,CE] [A,CE][E,,,E,,E,] | [A,,,A,,A,].[E,A,C] [E,,,E,,E,][=A,,,=A,,=A,] | %117
 [B,,,B,,B,].[E,G,D] [E,,,E,,E,][=A,,,=A,,=A,] | [B,,,B,,B,].[E,G,D] [E,,,E,,E,][G,,,G,,G,] | %119
 [A,,,A,,A,].[E,A,C] [E,,E,].[E,A,C] | [A,,A,].[E,A,C] [B,,,B,,B,][C,,C,C] | %121
 [D,,D,D].[A,DF] [A,DF][C,,C,C] | [D,,D,D].[A,DF] [B,,,B,,B,][_C,,_C,_C] | %123
 [C,,C,C].[A,CE] [A,CE][E,,,E,,E,] | [A,,,A,,A,].[E,A,C] [E,,,E,,E,].[E,A,C] | %125
 [D,,,D,,D,][D,,,D,,D,] [B,,,,B,,,B,,][=D,,,=D,,=D,] | %126
 [E,,,E,,E,].[E,A,C] [E,,,E,,E,][=E,,,=E,,=E,] | [F,,,F,,F,][F,,,F,,F,] [G,,,G,,G,][G,,,G,,G,] | %128
 [A,,,A,,A,].[E,A,C] [B,,,B,,B,][C,,C,C] | [D,,D,D].[A,DF] [A,DF][C,,C,C] | %130
 [D,,D,D].[A,DF] [B,,,B,,B,][C,,C,_C] | [C,,C,C].[A,CE] [A,CE][E,,,E,,E,] | %132
 [A,,,A,,A,][E,A,C] [E,,,E,,E,][A,,,A,,=A,] | [B,,,B,,B,].[E,G,D] [E,,,E,,E,][A,,,A,,=A,] | %134
 [B,,,B,,B,].[E,G,D] [E,,,E,,E,][G,,,G,,G,] | [A,,,A,,A,].[E,A,C] [E,,E,].[E,A,C] | %136
 [A,,A,].[E,A,C] [B,,,B,,B,][C,,C,C] | [D,,D,D].[A,DF] [A,DF][C,,C,C] | %138
 [D,,D,D].[A,DF] [B,,,B,,B,][C,,C,_C] | [C,,C,C].[A,CE] [A,CE][E,,,E,,E,] | %140
 [A,,,A,,A,].[E,A,C] [E,,E,].[E,A,C] | [D,,,D,,D,][D,,,D,,D,] [B,,,,B,,,B,,][D,,,D,,=D,] | %142
 [E,,,E,,E,].[E,A,C] [E,,,E,,E,][E,,,E,,=E,] | [F,,,F,,F,][F,,,F,,F,] [G,,,G,,G,][G,,,G,,G,] | %144
 [A,,,A,,A,].[E,,,E,,E,] .[A,,,A,,A,]2 |] %145

